apps/16/pidgin.svg

<?xml version="1.0" encoding="UTF-8" standalone="no"?>
<!-- Created with Inkscape (http://www.inkscape.org/) -->

<svg
   xmlns:svg="http://www.w3.org/2000/svg"
   xmlns="http://www.w3.org/2000/svg"
   xmlns:xlink="http://www.w3.org/1999/xlink"
   version="1.0"
   width="16"
   height="16"
   id="svg2485">
  <defs
     id="defs2487">
    <linearGradient
       id="linearGradient3332-412-419">
      <stop
         id="stop2554"
         style="stop-color:#611358;stop-opacity:1"
         offset="0" />
      <stop
         id="stop2556"
         style="stop-color:#a1619b;stop-opacity:1"
         offset="1" />
    </linearGradient>
    <linearGradient
       x1="18.530535"
       y1="24.150793"
       x2="18.530535"
       y2="-0.079317272"
       id="linearGradient2443"
       xlink:href="#linearGradient3332-412-419"
       gradientUnits="userSpaceOnUse"
       gradientTransform="matrix(0.6813469,0,0,0.6990088,-0.1761629,-0.5792587)" />
    <linearGradient
       id="linearGradient3242-593-605">
      <stop
         id="stop2544"
         style="stop-color:#d196bf;stop-opacity:1"
         offset="0" />
      <stop
         id="stop2546"
         style="stop-color:#bb70b6;stop-opacity:1"
         offset="0.26238" />
      <stop
         id="stop2548"
         style="stop-color:#954a9a;stop-opacity:1"
         offset="0.66093999" />
      <stop
         id="stop2550"
         style="stop-color:#6c3b77;stop-opacity:1"
         offset="1" />
    </linearGradient>
    <radialGradient
       cx="10.571148"
       cy="0.7647422"
       r="11.508719"
       fx="10.571148"
       fy="0.7647422"
       id="radialGradient2441"
       xlink:href="#linearGradient3242-593-605"
       gradientUnits="userSpaceOnUse"
       gradientTransform="matrix(-1.2228254e-8,1.2285722,-1.0507743,-1.1007836e-8,7.830028,-12.337639)" />
    <linearGradient
       id="linearGradient4593">
      <stop
         id="stop12409"
         style="stop-color:white;stop-opacity:0.70200002"
         offset="0" />
      <stop
         id="stop12411"
         style="stop-color:white;stop-opacity:0"
         offset="1" />
    </linearGradient>
    <linearGradient
       x1="27.906723"
       y1="7.549542"
       x2="24.774496"
       y2="39.399513"
       id="linearGradient2447"
       xlink:href="#linearGradient4593"
       gradientUnits="userSpaceOnUse"
       gradientTransform="matrix(0.3475373,-0.03246831,0.03417791,0.3883404,-1.0654487,-0.7461617)" />
  </defs>
  <g
     id="layer1">
    <path
       d="M 6.937336,1.0952089 C 3.0971986,1.6751814 0.2557299,4.3855881 0.5139086,7.3202401 0.6810901,9.2205483 2.1048877,10.784663 4.1409744,11.609911 l -0.849891,3.392464 3.7598546,-2.78557 0.025993,-0.0024 c 0.463993,0.02272 0.930139,0.03025 1.413866,-0.01496 4.127797,-0.385783 7.266159,-3.1994977 6.995281,-6.2784759 C 15.215202,2.8419621 11.636987,0.6559789 7.50919,1.0417633 7.315699,1.0598466 7.126196,1.0666851 6.937336,1.0952089 z"
       id="path3304"
       style="fill:url(#radialGradient2441);fill-opacity:1;fill-rule:evenodd;stroke:url(#linearGradient2443);stroke-width:0.99525028;stroke-linecap:butt;stroke-linejoin:round;stroke-miterlimit:4;stroke-opacity:1;stroke-dasharray:none;stroke-dashoffset:0;marker:none;visibility:visible;display:inline;overflow:visible" />
    <path
       d="M 8.84375,1.96875 C 8.4265983,1.9498916 8.0190661,1.9583268 7.59375,2 7.4399175,2.0150728 7.2845889,2.0387002 7.125,2.0625 5.5546792,2.2966946 4.0721901,2.9306199 3.03125,3.84375 1.9903099,4.7568801 1.3944972,5.9178295 1.5,7.28125 c 0.1397443,1.8059383 1.8127937,3.092828 3.59375,3.6875 0.039052,0.02233 0.07142,0.0547 0.09375,0.09375 0.038107,0.04339 0.06017,0.09855 0.0625,0.15625 0.00259,0.02075 0.00259,0.04175 0,0.0625 l -0.4375,1.4375 1.875,-1.375 c 0.047338,-0.02703 0.1021582,-0.03799 0.15625,-0.03125 0.3843876,0.0171 1.1301654,0.03455 1.5,0 1.4821026,-0.138463 3.171564,-0.797908 4.40625,-1.75 1.234686,-0.9520924 2.007317,-2.167666 1.84375,-3.5 C 14.424955,4.6875856 13.535469,3.5925576 12.25,2.875 11.285898,2.3368318 10.095205,2.0253253 8.84375,1.96875 z"
       id="path2445"
       style="opacity:0.4;fill:none;stroke:url(#linearGradient2447);stroke-width:0.99525028;stroke-linecap:butt;stroke-linejoin:miter;stroke-miterlimit:4;stroke-opacity:1;stroke-dasharray:none;stroke-dashoffset:0;marker:none;visibility:visible;display:inline;overflow:visible" />
    <path
       d="m 8.6242821,3.0062569 c -0.1595505,-0.023557 -0.3427278,0.021662 -0.4667635,0.097721 -0.1240358,0.07606 -0.1519411,0.1587152 -0.1521875,0.1604554 -4.244e-4,0.00753 -0.00101,0.015069 -0.00175,0.022606 -0.00191,0.00999 -0.00401,0.01569 -0.0035,0.045208 C 8.1947255,4.9285149 8.1851871,6.4913858 8.3571139,8 8.505359,7.9892107 8.5878396,7.9822181 8.738664,7.9713643 8.8315278,6.4773603 8.8500115,4.9776306 8.9907906,3.4293971 c 3.119e-4,-0.022552 0.00207,-0.045216 0.00525,-0.067813 0.019913,-0.093503 -0.026224,-0.3237578 -0.3517739,-0.3556444 -0.00668,2.86e-4 -0.013341,3.917e-4 -0.019989,3.173e-4 z M 8.59714,9.0216249 c -0.1583632,-0.048774 -0.3269258,-0.011983 -0.4227882,0.079627 -0.00392,-4.787e-4 -0.00784,-0.00109 -0.011737,-0.00182 -0.1118626,0.095415 -0.1617752,0.2316292 -0.15975,0.3461795 -5.128e-4,0.010666 -0.0014,0.021293 -0.00266,0.031842 -0.00427,0.1172592 0.059544,0.2664656 0.1936952,0.384826 0.1341503,0.1183613 0.3171264,0.1664666 0.4654864,0.1205209 0.00392,4.796e-4 0.00784,0.00109 0.011737,0.00182 0.1442552,-0.031326 0.2481445,-0.1362624 0.2952659,-0.2606681 0.047122,-0.1244047 0.046985,-0.2621881 -0.014974,-0.3893836 -0.00361,-0.00575 -0.00708,-0.01167 -0.010405,-0.01774 C 8.8862216,9.1873955 8.7557059,9.0704601 8.59714,9.0216249 z"
       id="path2482"
       style="font-size:62.4582634px;font-style:normal;font-variant:normal;font-weight:normal;font-stretch:normal;text-align:start;line-height:125%;writing-mode:lr-tb;text-anchor:start;fill:white;fill-opacity:1;stroke:none;font-family:Georgia" />
  </g>
</svg>

<?xml version="1.0" encoding="UTF-8" standalone="no"?>
<!-- Created with Inkscape (http://www.inkscape.org/) -->
<svg
   xmlns:svg="http://www.w3.org/2000/svg"
   xmlns="http://www.w3.org/2000/svg"
   xmlns:xlink="http://www.w3.org/1999/xlink"
   version="1.0"
   width="16"
   height="16"
   id="svg2485">
  <defs
     id="defs2487">
    <linearGradient
       id="linearGradient3332-412-419">
      <stop
         id="stop2554"
         style="stop-color:#611358;stop-opacity:1"
         offset="0" />
      <stop
         id="stop2556"
         style="stop-color:#a1619b;stop-opacity:1"
         offset="1" />
    </linearGradient>
    <linearGradient
       x1="18.530535"
       y1="24.150793"
       x2="18.530535"
       y2="-0.079317272"
       id="linearGradient2443"
       xlink:href="#linearGradient3332-412-419"
       gradientUnits="userSpaceOnUse"
       gradientTransform="matrix(0.6813469,0,0,0.6990088,-0.1761629,-0.5792587)" />
    <linearGradient
       id="linearGradient3242-593-605">
      <stop
         id="stop2544"
         style="stop-color:#d196bf;stop-opacity:1"
         offset="0" />
      <stop
         id="stop2546"
         style="stop-color:#bb70b6;stop-opacity:1"
         offset="0.26238" />
      <stop
         id="stop2548"
         style="stop-color:#954a9a;stop-opacity:1"
         offset="0.66093999" />
      <stop
         id="stop2550"
         style="stop-color:#6c3b77;stop-opacity:1"
         offset="1" />
    </linearGradient>
    <radialGradient
       cx="10.571148"
       cy="0.7647422"
       r="11.508719"
       fx="10.571148"
       fy="0.7647422"
       id="radialGradient2441"
       xlink:href="#linearGradient3242-593-605"
       gradientUnits="userSpaceOnUse"
       gradientTransform="matrix(-1.2228254e-8,1.2285722,-1.0507743,-1.1007836e-8,7.830028,-12.337639)" />
    <linearGradient
       id="linearGradient4593">
      <stop
         id="stop12409"
         style="stop-color:#ffffff;stop-opacity:0.70200002"
         offset="0" />
      <stop
         id="stop12411"
         style="stop-color:#ffffff;stop-opacity:0"
         offset="1" />
    </linearGradient>
    <linearGradient
       x1="27.906723"
       y1="7.549542"
       x2="24.774496"
       y2="39.399513"
       id="linearGradient2447"
       xlink:href="#linearGradient4593"
       gradientUnits="userSpaceOnUse"
       gradientTransform="matrix(0.3475373,-3.2468312e-2,3.4177915e-2,0.3883404,-1.0654487,-0.7461617)" />
  </defs>
  <g
     id="layer1">
    <path
       d="M 6.937336,1.0952089 C 3.0971986,1.6751814 0.2557299,4.3855881 0.5139086,7.3202401 C 0.6810901,9.2205483 2.1048877,10.784663 4.1409744,11.609911 L 3.2910834,15.002375 L 7.050938,12.216805 L 7.076931,12.214377 C 7.540924,12.237095 8.00707,12.244626 8.490797,12.199416 C 12.618594,11.813633 15.756956,8.9999183 15.486078,5.9209401 C 15.215202,2.8419621 11.636987,0.6559789 7.50919,1.0417633 C 7.315699,1.0598466 7.126196,1.0666851 6.937336,1.0952089 z"
       id="path3304"
       style="fill:url(#radialGradient2441);fill-opacity:1;fill-rule:evenodd;stroke:url(#linearGradient2443);stroke-width:0.99525028;stroke-linecap:butt;stroke-linejoin:round;marker:none;marker-start:none;marker-mid:none;marker-end:none;stroke-miterlimit:4;stroke-dasharray:none;stroke-dashoffset:0;stroke-opacity:1;visibility:visible;display:inline;overflow:visible" />
    <path
       d="M 8.84375,1.96875 C 8.4265983,1.9498916 8.0190661,1.9583268 7.59375,2 C 7.4399175,2.0150728 7.2845889,2.0387002 7.125,2.0625 C 5.5546792,2.2966946 4.0721901,2.9306199 3.03125,3.84375 C 1.9903099,4.7568801 1.3944972,5.9178295 1.5,7.28125 C 1.6397443,9.0871883 3.3127937,10.374078 5.09375,10.96875 C 5.1328015,10.99108 5.1651699,11.023448 5.1875,11.0625 C 5.2256075,11.105892 5.2476696,11.161047 5.25,11.21875 C 5.2525913,11.239503 5.2525913,11.260497 5.25,11.28125 L 4.8125,12.71875 L 6.6875,11.34375 C 6.7348378,11.316722 6.7896582,11.305758 6.84375,11.3125 C 7.2281376,11.329602 7.9739154,11.347052 8.34375,11.3125 C 9.8258526,11.174037 11.515314,10.514592 12.75,9.5625 C 13.984686,8.6104076 14.757317,7.394834 14.59375,6.0625 C 14.424955,4.6875856 13.535469,3.5925576 12.25,2.875 C 11.285898,2.3368318 10.095205,2.0253253 8.84375,1.96875 z"
       id="path2445"
       style="opacity:0.4;fill:none;fill-opacity:1;fill-rule:evenodd;stroke:url(#linearGradient2447);stroke-width:0.99525028;stroke-linecap:butt;stroke-linejoin:miter;marker:none;marker-start:none;marker-mid:none;marker-end:none;stroke-miterlimit:4;stroke-dasharray:none;stroke-dashoffset:0;stroke-opacity:1;visibility:visible;display:inline;overflow:visible" />
    <path
       d="M 8.6242821,3.0062569 C 8.4647316,2.9827001 8.2815543,3.0279189 8.1575186,3.1039779 C 8.0334828,3.1800381 8.0055775,3.2626931 8.0053311,3.2644333 C 8.0049067,3.2719654 8.0043227,3.279502 8.0035793,3.2870391 C 8.0016708,3.2970277 7.9995711,3.3027291 8.0000762,3.3322474 C 8.1947255,4.9285149 8.1851871,6.4913858 8.3571139,8 C 8.505359,7.9892107 8.5878396,7.9822181 8.738664,7.9713643 C 8.8315278,6.4773603 8.8500115,4.9776306 8.9907906,3.4293971 C 8.9911025,3.4068451 8.9928586,3.3841816 8.9960453,3.361584 C 9.0159586,3.2680808 8.9698209,3.0378262 8.6442714,3.0059396 C 8.6375956,3.0062256 8.63093,3.0063313 8.6242821,3.0062569 z M 8.59714,9.0216249 C 8.4387768,8.9728507 8.2702142,9.0096417 8.1743518,9.1012521 C 8.1704296,9.1007734 8.1665158,9.100167 8.1626149,9.0994333 C 8.0507523,9.1948478 8.0008397,9.3310625 8.0028649,9.4456128 C 8.0023521,9.4562787 8.0014629,9.4669054 8.0002004,9.4774551 C 7.9959343,9.5947143 8.0597446,9.7439207 8.1938956,9.8622811 C 8.3280459,9.9806424 8.511022,10.028748 8.659382,9.982802 C 8.6633042,9.9832816 8.6672181,9.9838875 8.671119,9.9846215 C 8.8153742,9.9532957 8.9192635,9.8483591 8.9663849,9.7239534 C 9.0135069,9.5995487 9.0133694,9.4617653 8.9514108,9.3345698 C 8.9477964,9.3288171 8.9443259,9.3228999 8.941006,9.3168297 C 8.8862216,9.1873955 8.7557059,9.0704601 8.59714,9.0216249 z"
       id="path2482"
       style="font-size:62.4582634px;font-style:normal;font-variant:normal;font-weight:normal;font-stretch:normal;text-align:start;line-height:125%;writing-mode:lr-tb;text-anchor:start;fill:#ffffff;fill-opacity:1;stroke:none;stroke-width:1.00079775;stroke-linecap:round;stroke-linejoin:round;stroke-miterlimit:4;stroke-dasharray:none;stroke-opacity:1;font-family:Georgia" />
  </g>
</svg>
